svg/education/speech_line.svg

<?xml version="1.0" encoding="UTF-8"?>
<svg width="24px" height="24px" viewBox="0 0 24 24" version="1.1" xmlns="http://www.w3.org/2000/svg" xmlns:xlink="http://www.w3.org/1999/xlink">
    <title>speech_line</title>
    <g id="Icon" stroke="none" stroke-width="1" fill="none" fill-rule="evenodd">
        <g id="Education" transform="translate(-240.000000, -96.000000)">
            <g id="speech_line" transform="translate(240.000000, 96.000000)">
                <path d="M24,0 L24,24 L0,24 L0,0 L24,0 Z M12.5935,23.2578 L12.5819,23.2595 L12.5109,23.295 L12.4919,23.2987 L12.4767,23.295 L12.4057,23.2595 C12.3958,23.2564 12.387,23.259 12.3821,23.2649 L12.378,23.2758 L12.3609,23.7031 L12.3659,23.7235 L12.3769,23.7357 L12.4805,23.8097 L12.4953,23.8136 L12.5071,23.8097 L12.6107,23.7357 L12.6233,23.7197 L12.6267,23.7031 L12.6096,23.2758 C12.6076,23.2657 12.601,23.2593 12.5935,23.2578 Z M12.8584,23.1453 L12.8445,23.1473 L12.6598,23.2397 L12.6499,23.2499 L12.6472,23.2611 L12.6651,23.6906 L12.6699,23.7034 L12.6784,23.7105 L12.8793,23.8032 C12.8914,23.8069 12.9022,23.803 12.9078,23.7952 L12.9118,23.7812 L12.8777,23.1665 C12.8753,23.1546 12.8674,23.147 12.8584,23.1453 Z M12.143,23.1473 C12.1332,23.1424 12.1222,23.1453 12.1156,23.1526 L12.1099,23.1665 L12.0758,23.7812 C12.0751,23.7927 12.0828,23.8019 12.0926,23.8046 L12.1083,23.8032 L12.3092,23.7105 L12.3186,23.7024 L12.3225,23.6906 L12.3404,23.2611 L12.3372,23.2485 L12.3278,23.2397 L12.143,23.1473 Z" id="MingCute" fill-rule="nonzero"></path>
                <path d="M11.9999983,9 C13.7531,9 15.3413,9.62036 16.5481,10.4988 C17.401425,11.120025 18.1166083,11.910566 18.5505367,12.7653602 L18.6618,13 L20.9999983,13 C21.3466,13 21.6684,13.1795 21.8507,13.4743 C22.010125,13.73225 22.0426859,14.0463203 21.9444973,14.3284832 L21.8944,14.4472 L18.8944,20.4472 C18.7438222,20.7483556 18.4535506,20.9509037 18.1248602,20.9921964 L17.9999983,21 L5.99999826,21 C5.66331536,21 5.352318,20.8309136 5.16838902,20.5553888 L5.10557,20.4472 L2.10557,14.4472 C1.95058,14.1372 1.96714,13.7691 2.14935,13.4743 C2.30878375,13.21635 2.57513703,13.0466766 2.87141456,13.0082887 L2.99999826,13 L5.33813,13 C5.75443,12.0557 6.52091,11.1765 7.45182,10.4988 C8.65861,9.62036 10.2469,9 11.9999983,9 Z M19.382,15 L4.61804,15 L6.61804,19 L17.382,19 L19.382,15 Z M12,11 C10.7185,11 9.5352,11.456 8.62886,12.1158 C8.24487,12.3953 7.92803,12.6979 7.67914,13 L16.3208,13 C16.0719,12.6979 15.7551,12.3953 15.3711,12.1158 C14.4647,11.456 13.2815,11 12,11 Z M12,3 C13.6569,3 15,4.34315 15,6 C15,7.65685 13.6569,9 12,9 C10.3431,9 9,7.65685 9,6 C9,4.34315 10.3431,3 12,3 Z M12,5 C11.4477,5 11,5.44772 11,6 C11,6.55228 11.4477,7 12,7 C12.5523,7 13,6.55228 13,6 C13,5.44772 12.5523,5 12,5 Z" id="形状" fill="#09244B"></path>
            </g>
        </g>
    </g>
</svg>

<svg xmlns="http://www.w3.org/2000/svg" width="24" height="24"><g fill="none" fill-rule="evenodd"><path d="M24 0v24H0V0h24ZM12.594 23.258l-.012.002-.071.035-.02.004-.014-.004-.071-.036c-.01-.003-.019 0-.024.006l-.004.01-.017.428.005.02.01.013.104.074.015.004.012-.004.104-.074.012-.016.004-.017-.017-.427c-.002-.01-.009-.017-.016-.018Zm.264-.113-.014.002-.184.093-.01.01-.003.011.018.43.005.012.008.008.201.092c.012.004.023 0 .029-.008l.004-.014-.034-.614c-.003-.012-.01-.02-.02-.022Zm-.715.002a.023.023 0 0 0-.027.006l-.006.014-.034.614c0 .012.007.02.017.024l.015-.002.201-.093.01-.008.003-.011.018-.43-.003-.012-.01-.01-.184-.092Z"/><path fill="#09244B" d="M12 9c1.753 0 3.341.62 4.548 1.499.853.621 1.569 1.412 2.003 2.266l.11.235H21a1 1 0 0 1 .944 1.328l-.05.12-3 6a1 1 0 0 1-.77.544L18 21H6a1 1 0 0 1-.832-.445l-.062-.108-3-6a1 1 0 0 1 .765-1.439L3 13h2.338c.416-.944 1.183-1.823 2.114-2.501C8.659 9.62 10.247 9 12 9Zm7.382 6H4.618l2 4h10.764l2-4ZM12 11a5.782 5.782 0 0 0-3.371 1.116c-.384.28-.701.582-.95.884h8.642a5.176 5.176 0 0 0-.95-.884A5.782 5.782 0 0 0 12 11Zm0-8a3 3 0 1 1 0 6 3 3 0 0 1 0-6Zm0 2a1 1 0 1 0 0 2 1 1 0 0 0 0-2Z"/></g></svg>
